X: 15896
T: Gráinne's
R: jig
M: 6/8
K: Gmajor
|:B|"G"dGF GDB|G3 DBD|"Am"EcB ABG|"D7"FED cBA|
"G"BdB G3|"C"EGE cEG|"G"DGc "D7"BEF|AGF "G"G2:|
|:A|"G"B3 Ggf|"Am"ecA E3|"D7"DFA f3|"A7"ed^c "D7"d2=c|
"G"BdB Ggf|"Am"ecA E3|"G"DGc "D7"BEF|AGF "G"G2:|
|:D|"G"GBd g3|"C"ecB c2B|"A7"A^ce a2g|"D"fd^c def|
"G"gdB Ggf|"Am"ecA E3|"G"DGc "D7"BEF|AGF "G"G2:|

